hero/solid/arrow-uturn-down.svg

<svg width="24" height="24" viewBox="0 0 24 24" fill="none" xmlns="http://www.w3.org/2000/svg">
<path fill-rule="evenodd" clip-rule="evenodd" d="M15 3.75C12.1005 3.75 9.75 6.10051 9.75 9L9.75 19.1893L14.4697 14.4697C14.7626 14.1768 15.2374 14.1768 15.5303 14.4697C15.8232 14.7626 15.8232 15.2374 15.5303 15.5303L9.53033 21.5303C9.38968 21.671 9.19891 21.75 9 21.75C8.80109 21.75 8.61032 21.671 8.46967 21.5303L2.46967 15.5303C2.17678 15.2374 2.17678 14.7626 2.46967 14.4697C2.76256 14.1768 3.23744 14.1768 3.53033 14.4697L8.25 19.1893V9C8.25 5.27208 11.2721 2.25 15 2.25C18.7279 2.25 21.75 5.27208 21.75 9V12C21.75 12.4142 21.4142 12.75 21 12.75C20.5858 12.75 20.25 12.4142 20.25 12V9C20.25 6.10051 17.8995 3.75 15 3.75Z" fill="#0F172A"/>
</svg>

<svg viewBox="0 0 24 24" xmlns="http://www.w3.org/2000/svg"><path fill-rule="evenodd" d="M15 3.75v0C12.1 3.75 9.75 6.1 9.75 9v10.19l4.72-4.72v0c.28-.31.75-.32 1.06-.04 .3.28.31.75.03 1.06 -.02.01-.03.02-.04.03l-6 6v0c-.3.29-.77.29-1.06 0l-6-6h0c-.31-.29-.32-.76-.04-1.06 .28-.31.75-.32 1.06-.04 .01.01.02.02.03.03l4.72 4.72V8.98v0c0-3.73 3.02-6.75 6.75-6.75 3.72 0 6.75 3.02 6.75 6.75v3 0c0 .41-.34.75-.75.75 -.42 0-.75-.34-.75-.75v-3c0-2.9-2.35-5.25-5.25-5.25Z"/></svg>
